src/img/event_icons/check.svg

<svg fill="none" height="10" viewBox="0 0 14 10" width="14" xmlns="http://www.w3.org/2000/svg"><path d="m12.8516.648438c.3554.328124.3554.902342 0 1.230472l-7.00004 7c-.32812.35547-.90234.35547-1.23047 0l-3.5-3.5c-.355465-.32813-.355465-.90235 0-1.23047.32813-.35547.90235-.35547 1.23047 0l2.8711 2.87109 6.39844-6.371092c.3281-.355469.9023-.355469 1.2305 0z" fill="#000"/></svg>

<svg width="14" height="10" viewBox="0 0 14 10" fill="none" xmlns="http://www.w3.org/2000/svg">
<path d="M12.8516 0.648438C13.207 0.976562 13.207 1.55078 12.8516 1.87891L5.85156 8.87891C5.52344 9.23438 4.94922 9.23438 4.62109 8.87891L1.12109 5.37891C0.765625 5.05078 0.765625 4.47656 1.12109 4.14844C1.44922 3.79297 2.02344 3.79297 2.35156 4.14844L5.22266 7.01953L11.6211 0.648438C11.9492 0.292969 12.5234 0.292969 12.8516 0.648438Z" fill="black"/>
</svg>
